svg/u1f1f9.svg

<svg viewBox="0 0 128 128" xmlns="http://www.w3.org/2000/svg">
  <path d="m111.84 15.36h-95.68c-1.24 0-2.24 1-2.24 2.24v17.99c0 1.24 1 2.24 2.24 2.24h34.65v80.73c0 1.24 1 2.24 2.24 2.24h21.9c1.24 0 2.24-1 2.24-2.24v-80.73h34.65c1.24 0 2.24-1 2.24-2.24v-17.99c0-1.24-1-2.24-2.24-2.24z" fill="#40C0E7"/>
</svg>

<svg viewBox="0 0 128 128" xmlns="http://www.w3.org/2000/svg">
  <defs/>
  <path d="M111.84,15.36 L16.16,15.36 C14.92,15.36 13.92,16.36 13.92,17.6 L13.92,35.59 C13.92,36.83 14.92,37.83 16.16,37.83 L50.81,37.83 L50.81,118.56 C50.81,119.8 51.81,120.8 53.05,120.8 L74.95,120.8 C76.19,120.8 77.19,119.8 77.19,118.56 L77.19,37.83 L111.84,37.83 C113.08,37.83 114.08,36.83 114.08,35.59 L114.08,17.6 C114.08,16.36 113.08,15.36 111.84,15.36 Z" fill="#40C0E7"/>
</svg>
